X: 1
T: Morag of Dunvegan    [A]
C: attr. Neil Matheson
R: waltz
M: 3/4
L: 1/4
K: A
"E7"fg \
| "A"a3 |"D"a>gf |"A"e2A |     A3 |  "A"c3  |"F#m"cBc |"Bm"f2e |"E7"e>fg |
| "A"a3 |"D"a>gf |"A"e2A |"/g#"A3 |"F#m"c2c |"c#m"e2c |"E7"B3  | "A"A3  ||
||"A"c3 |    cBA |   cee |"E"e>fg |  "D"a3  |"/c#"aga |"Bm"f2e |"E7"e3   |
| "A"c3 |"A7"cBc |"D"f2e |  "A"e3 |  "D"f3  |  "A"fec |"E7"B3  | "A"A   |]
